**kern	**text
*clefG2	*
*k[b-e-a-d-]	*
*M4/4	*
*MM120	*
=1	=1
1r	.
=2	=2
*MM145	*
1r	.
=3	=3
1r	.
=4	=4
1r	.
=5	=5
1r	.
=6	=6
1r	.
=7	=7
1r	.
=8	=8
1r	.
=9	=9
1r	.
=10	=10
1r	.
=11	=11
1r	.
=12	=12
1r	.
=13	=13
1r	.
=14	=14
1r	.
=15	=15
1r	.
=16	=16
1r	.
=17	=17
1r	.
=18	=18
1r	.
=19	=19
4r	.
8.fL	わ
16fJk	ん
8.fL	つ
[16a-Jk	じゅ
16a-LL]	.
16a-J	ん
8fJ	び
=20	=20
8e-L	お
8fJ	け
8r	.
16d-LL	す
16d-JJ	り
8d-L	ふぉ
16d-L	で
[16d-JJ	け
16d-LL]	.
16cJ	と
8cJ	ば
=21	=21
8A-L	し
8B-J	て
[4c	ぜ
8c]	.
4.e-	ん
=22	=22
8A-L	ぶ
8B-J	さ
8r	.
16d-LL	ふ
16d-JJ	い
8d-L	に
16d-L	し
[16d-JJ	ちゃ
16d-KL]	.
8e-	た
16fJk	て
=23	=23
8a-L	い
16gL	じゃ
16gJJ	ん
8r	.
8f	ど
8fL	せ
16fL	な
16fJJ	に
8fL	か
16fL	か
16fJJ	わ
=24	=24
16fLL	る
16f	ー
16f	わ
16gJJ	け
8.a-L	じゃ
16a-Jk	a
4g	あ
4e-	る
=25	=25
8cL	ま
8cJ	い
4f	し
8r	.
8c	ま
8e-L	い
16fL	し
16fJJ	ん
=26	=26
8r	.
8f	は
4a-	しゃ
4b-	お
8.gL	ら
16gJk	い
=27	=27
8cL	み
8e-J	ら
[2.f	い
=28	=28
2.f]	.
4r	.
=29	=29
1r	.
=30	=30
1r	.
=31	=31
1r	.
=32	=32
1r	.
=33	=33
1r	.
=34	=34
1r	.
=35	=35
8.b-L	いぇ
16b-Jk	い
8fL	す
[8fJ	て
8fL]	.
16fL	ぷ
[16a-JJ	あ
8a-L]	.
8fJ	や
=36	=36
8e-L	ふ
8fJ	や
8r	.
16d-LL	ど
16d-JJ	ー
8d-L	し
16d-L	て
[16d-JJ	る
16d-LL]	.
16cJ	る
8cJ	り
=37	=37
8A-L	ら
8B-J	ら
[4c	ま
8c]	.
4.e-	よ
=38	=38
8A-L	お
8B-J	て
8r	.
16d-LL	い
[16d-JJ	た
16d-KL]	.
8d-	て
[16d-Jk	さ
16d-KL]	.
8e-	しょ
16fJk	が
=39	=39
16a-LL	な
16a-	い
16g	じゃ
16gJJ	ん
8r	.
16fLL	や
16fJJ	め
8fL	て
16fL	あ
16fJJ	え
8fL	て
16fL	せ
16fJJ	め
=40	=40
8fL	て
16fL	た
16gJJ	し
4a-	か
4g	め
4e-	て
=41	=41
8cL	め
8cJ	い
8.fL	て
16fJk	い
8r	.
8cL	ま
8e-	る
8fJ	で
=42	=42
8r	.
16fLL	た
16fJJ	り
4a-	な
4b-	い
4g	や
=43	=43
8cL	は
8e-J	じ
[4f	け
8f]	.
4.e-	だ
=44	=44
4c	す
8r	.
[8e-	ふ
8e-L]	.
8fJ	れ
*clefF4	*
16A-KL	え
8.A-'J	ず
=45	=45
8A-L	と
8B-J	き
[4c	は
8c]	.
*clefG2	*
4.e-	な
=46	=46
4f	あ
2e-	て
8a-L	ほ
8gJ	ら
=47	=47
8fL	ほ
8e-J	ら
[4f	た
8f]	.
4.e-	の
=48	=48
4c	し
[4a-	い
8a-]	.
4.g	こ
=49	=49
4e-	と
4f	し
4g	た
4a-	も
=50	=50
4b-	ん
[4g	が
8g]	.
4.e-	ち
=51	=51
8r	.
16fLL	さ
16a-JJ	が
8.b-L	し
[16ccJk	に
8ccL]	.
8fJ	い
8b-L	く
16b-L	ん
[16ccJJ	だ
=52	=52
8cc]	.
4b-	せ
8a-	つ
8b-L	な
8cc	と
8b-	り
8a-J	い
=53	=53
8fL	ぷ
16fL	と
16gJJ	べ
16b-LL	な
16b-	い
16f	わ
16gJJ	け
16b-LL	な
16b-	い
16f	ま
16gJJ	だ
8b-L	な
8ee-J	い
=54	=54
8ccL	しょ
8a-J	の
4b-	は
8b-L	と
16b-L	に
[16ccJJ	だ
8ccL]	.
16ccL	い
16cc'JJ	ぶ
=55	=55
8r	.
16fLL	わ
16a-JJ	き
8.b-L	め
[16ccJk	も
8ccL]	.
8fJ	ふ
8.b-L	ら
[16ccJk	ず
=56	=56
8cc]	.
4b-	で
8a-	た
8b-L	と
8cc	こ
8b-	しょ
8a-J	お
=57	=57
8fL	ぶ
16fL	て
16gJJ	い
16b-LL	た
16b-	い
16f	て
16gJJ	い
16b-LL	た
16b-	い
16f	て
16gJJ	え
8b-L	た
8ccJ	い
=58	=58
8ee-L	わ
8ccJ	し
2b-	な
[4an	い
=59	=59
8a]	.
8r	.
8.b-L	い
[16ccJk	き
8ccL]	.
8fJ	い
8.b-L	そ
[16ccJk	げ
=60	=60
8cc]	.
4b-	ぜ
8a-	ん
8b-L	か
8cc	い
8b-	しょ
8a-J	お
=61	=61
8fL	じょ
16fL	ね
16gJJ	て
8b-L	も
16fL	さ
16gJJ	め
8b-L	て
16fL	も
16gJJ	そ
8b-L	の
8ee-J	せ
=62	=62
8ccL	つ
8a-	な
8b-	か
8b-J	い
8b-L	な
16b-L	ら
[16ccJJ	せ
4cc]	.
=63	=63
8r	.
16fLL	そ
16a-JJ	ろ
8.b-L	そ
[16ccJk	ろ
8ccL]	.
8fJ	ど
8.b-L	お
[16ccJk	も
=64	=64
8cc]	.
4b-	げ
8a-	ん
8b-L	か
8cc	い
8b-	しょ
8a-J	お
=65	=65
8fL	じょ
16fL	そ
16gJJ	お
8b-L	こ
16fL	せ
16gJJ	い
8b-L	の
16fL	と
16gJJ	り
8b-L	い
8ccJ	ぷ
=66	=66
8ee-L	に
8ccJ	む
2b-	ちゅ
[4an	う
=67	=67
2a]	.
2r	.
=68	=68
1r	.
=69	=69
1r	.
=70	=70
1r	.
=71	=71
4r	.
8fL	ふ
8fJ	わ
16fKL	ふ
8f	わ
[16a-Jk	り
8a-L]	.
16fL	ま
16fJJ	だ
=72	=72
8e-L	ちょ
8fJ	と
8r	.
16d-LL	ふ
16d-JJ	ら
8d-L	ふ
16d-L	ら
[16cJJ	り
16cKL]	.
8.cJ	も
=73	=73
8A-L	ちょ
8B-J	と
[4c	あ
8c]	.
4.e-	ま
=74	=74
8A-L	え
8B-J	て
8r	.
16d-LL	あ
16d-JJ	ら
8d-L	あ
16d-L	ら
[16d-JJ	や
16d-KL]	.
8e-	ちゃ
16fJk	た
=75	=75
16a-LL	べ
16a-J	い
8gJ	べ
8r	.
16fLL	き
16fJJ	い
8fL	と
16fL	は
16fJJ	あ
16fLL	て
16f	ん
16f	せ
16fJJ	い
=76	=76
8fL	も
16fL	な
16gJJ	に
8.a-L	も
16a-Jk	a
4g	あ
4e-	る
=77	=77
8cL	ま
8cJ	い
4f	に
8r	.
8c	ま
16e-LL	い
16e-J	に
8fJ	ち
=78	=78
8r	.
16fLL	こ
16fJJ	り
4a-	な
4b-	い
4g	な
=79	=79
8cL	は
8e-J	や
[4f	お
8f]	.
4.e-	く
=80	=80
4c	り
8r	.
[8e-	の
8e-L]	.
8fJ	よ
*clefF4	*
4A-'	に
=81	=81
8A-L	す
8B-J	ぎ
[4c	ゆ
8c]	.
*clefG2	*
4.e-	く
=82	=82
4f	ひ
2e-	び
8a-L	ま
8gJ	だ
=83	=83
8fL	ま
8e-J	だ
[4f	あ
8f]	.
4.e-	や
=84	=84
4c	て
[4a-	こ
8a-]	.
4.g	や
=85	=85
4e-	て
4f	お
4g	ぼ
4a-	れ
=86	=86
4b-	た
4g	い
8g	ん
4.e-	だ
=87	=87
8r	.
16fLL	い
16a-JJ	か
8.b-L	ん
[16ccJk	せ
16ccLL]	.
16ccJ	ん
8fJ	ふ
8.b-L	か
[16ccJk	ぜ
=88	=88
16ccLL]	.
16ccJJ	ん
4b-	と
8a-	り
8b-L	い
8cc	ぷ
8b-	が
8a-J	あ
=89	=89
8fL	る
16fL	か
16gJJ	わ
8b-L	る
16fL	が
16gJJ	わ
8b-L	る
16fL	が
16gJJ	な
8b-L	り
8ee-J	た
=90	=90
8ccL	て
8a-	る
8b-	り
8b-J	あ
8b-L	る
16b-L	を
[16ccJJ	ば
8ccL]	.
16ccL	ん
16cc'JJ	ぐ
=91	=91
8r	.
16fLL	あ
16a-JJ	ら
8.b-L	が
[16ccJk	え
8ccL]	.
8fJ	き
8.b-L	い
[16ccJk	と
=92	=92
8cc]	.
4b-	と
8a-	り
8b-L	い
8cc	く
8b-	が
8a-J	あ
=93	=93
8fL	る
16fL	め
16gJJ	い
8b-L	ろ
16fL	ね
16gJJ	い
8b-L	ろ
16fL	よ
16gJJ	い
8b-L	ろ
8ccJ	に
=94	=94
8ee-L	ま
8ccJ	ぎ
2b-	れ
[4an	て
=95	=95
8a]	.
8r	.
8.b-L	う
[16ccJk	ら
8ccL]	.
8fJ	わ
8.b-L	か
[16ccJk	き
=96	=96
8cc]	.
4b-	あ
8a-	す
8b-L	あ
8cc	る
8b-	しょ
8a-J	お
=97	=97
8fL	じょ
16fL	ね
16gJJ	た
16b-LL	ふ
16b-	り
16f	ふ
16gJJ	り
8b-L	い
16fL	み
16gJJ	み
8b-L	を
8ee-J	ふ
=98	=98
8ccL	さ
8a-	ぐ
8b-	あ
8b-J	き
8b-L	こ
16b-L	え
[16ccJJ	な
8.ccL]	.
16ccJk	い
=99	=99
8r	.
16fLL	か
16a-JJ	ん
8.b-L	び
[16ccJk	な
8ccL]	.
16fL	ば
16fJJ	ん
8.b-L	び
[16ccJk	な
=100	=100
8cc]	.
4b-	ゆ
8a-	め
8b-L	み
8cc	る
8b-	しょ
8a-J	お
=101	=101
8fL	じょ
16fL	そ
16gJJ	こ
8b-L	に
16fL	え
16gJJ	い
16b-LL	え
16b-	ん
16f	が
16gJJ	あ
8b-L	る
8ccJ	と
=102	=102
8ee-L	し
8ccJ	ん
2b-	じ
[4an	て
=103	=103
4a]	.
8r	.
16gLL	が
16enJJ	ん
16eKL	ば
8g	る
[16anJk	だ
16aKL]	.
8b-	け
16ccJk	そ
=104	=104
16b-KL	ん
8g	じゃ
16gJk	ん
8r	.
16gLL	な
16enJJ	ん
16eLL	と
16g	な
16g	く
[16anJJ	さ
16aKL]	.
8b-	し
16ccJk	ちゃ
=105	=105
16b-KL	う
8g	じゃ
16gJk	ん
8r	.
16gLL	う
16gJJ	ま
16enKL	れ
8e	た
[16anJk	と
16aKL]	.
8b-	き
[16ccJk	に
=106	=106
16ccKL]	.
8.a-J	さ
8b-L	く
16gL	ば
16gJJ	ら
16b-KL	れ
8cc	て
[16ddnJk	い
16ddKL]	.
8cc	た
16ccJk	て
=107	=107
8ddnL	ふ
16ee-L	だ
16ee-JJ	が
8r	.
16ccLL	よ
16ccJJ	わ
8cc'L	か
16ccL	た
16cc-XJJ	ら
16cc-KL	お
8ccn	わ
16ccJk	り
=108	=108
8ee-L	だ
8ccJ	て
8r	.
16ccLL	さ
16ccJJ	き
16ccLL	な
16cc	ん
16cc	か
[16cc-XJJ	し
16cc-KL]	.
8cc-	れ
16ccnJk	て
=109	=109
8ee-L	る
8ccJ	て
8r	.
16ccLL	く
16ccJJ	つ
16ccLL	が
16cc	え
16cc	せ
[16cc-XJJ	や
16cc-KL]	.
8cc-	し
16ccnJk	な
=110	=110
8ee-L	い
8ccJ	て
4dn	あ
4g	も
8dd-L	ぎ
[8ccJ	た
=111	=111
4cc]	.
4r	.
2r	.
=112	=112
1r	.
=113	=113
1r	.
=114	=114
1r	.
=115	=115
1r	.
=116	=116
1r	.
=117	=117
1r	.
=118	=118
1r	.
=119	=119
8r	.
16fLL	わ
16a-JJ	か
8.b-L	あ
[16ccJk	て
8ccL]	.
8fJ	い
8b-L	る
16b-L	ん
[16ccJJ	だ
=120	=120
8cc]	.
4b-	い
8a-	い
8b-L	わ
8cc	け
8b-	だ
8a-J	あ
=121	=121
8fL	て
16fL	て
16gJJ	ふ
8b-L	だ
16fL	な
16gJJ	ん
8b-L	て
16fL	じ
16gJJ	ぶ
8b-L	ん
8ee-J	し
=122	=122
8ccL	だ
8a-	い
8b-	な
8b-J	ん
8b-L	だ
16b-L	あ
[16ccJJ	て
4cc]	.
=123	=123
8r	.
16fLL	い
16a-JJ	つ
8.b-L	ま
[16ccJk	で
8ccL]	.
8fJ	ゆ
8.b-L	め
[16ccJk	に
=124	=124
8cc]	.
4b-	に
8a-	げ
8b-L	て
8ccJ	い
16b-LL	る
16b-J	ん
8a-J	で
=125	=125
8fL	しょ
16fL	そ
16gJJ	ろ
8b-L	そ
16fL	ろ
16gJJ	お
8b-L	は
16fL	よ
16gJJ	お
8b-L	の
8ccJ	じ
=126	=126
8ee-L	か
8ccJ	ん
2b-	だ
[4an	ろ
=127	=127
8a]	.
8r	.
8.b-L	め
[16ccJk	を
8ccL]	.
8fJ	さ
8.b-L	ま
[16ccJk	せ
=128	=128
8cc]	.
4b-	せ
8a-	つ
8b-L	な
8cc	と
8b-	り
8a-J	い
=129	=129
8fL	ぷ
16fL	と
16gJJ	べ
16b-LL	な
16b-	い
16f	わ
16gJJ	け
16b-LL	な
16b-	い
16f	い
16gJJ	ま
8b-L	ま
8ee-J	ぶ
=130	=130
8ccL	し
8a-	い
8b-	り
8b-J	あ
8b-L	る
16b-L	に
[16ccJJ	だ
8ccL]	.
16ccL	い
16cc'JJ	ぶ
=131	=131
8r	.
16fLL	わ
16a-JJ	き
8.b-L	め
[16ccJk	も
8ccL]	.
8fJ	ふ
8.b-L	ら
[16ccJk	ず
=132	=132
8cc]	.
4b-	に
8a-	げ
8b-L	ず
8cc	に
8b-	しょ
8a-J	お
=133	=133
8fL	ぶ
16fL	ぜ
16gJJ	え
16b-LL	た
16b-	い
16f	め
16gJJ	い
16b-LL	だ
16b-	い
16f	て
16gJJ	え
8b-L	た
8ccJ	い
=134	=134
8ee-L	わ
8ccJ	し
2b-	な
[4cc	い
=135	=135
8ccL]	.
16fL	か
16gJJ	く
8b-L	ご
16fL	き
16gJJ	め
8b-L	て
16fL	ま
16gJJ	け
8b-L	ず
8b-J	い
=136	=136
8ee-L	き
8ffJ	る
2gg	か
[4ff	ら
=137	=137
4ff]	.
4r	.
2r	.
=138	=138
1r	.
=139	=139
1r	.
=140	=140
1r	.
=141	=141
1r	.
=142	=142
1r	.
=143	=143
1r	.
=144	=144
1r	.
=145	=145
1r	.
=146	=146
1r	.
=147	=147
1r	.
=148	=148
1r	.
=149	=149
1r	.
=150	=150
1r	.
=151	=151
1r	.
=152	=152
1r	.
=153	=153
1r	.
=154	=154
1r	.
=155	=155
1r	.
=156	=156
1r	.
=157	=157
1r	.
=158	=158
1r	.
=159	=159
1r	.
=160	=160
1r	.
=161	=161
1r	.
=162	=162
1r	.
=163	=163
1r	.
=164	=164
1r	.
=165	=165
1r	.
=166	=166
1r	.
=167	=167
1r	.
=168	=168
1r	.
=169	=169
1r	.
=170	=170
1r	.
=171	=171
1r	.
=172	=172
1r	.
=173	=173
1r	.
=174	=174
1r	.
=175	=175
1r	.
=176	=176
1r	.
=177	=177
1r	.
=178	=178
1r	.
=179	=179
1r	.
=180	=180
1r	.
=181	=181
1r	.
=182	=182
1r	.
=183	=183
1r	.
=184	=184
1r	.
=185	=185
1r	.
=186	=186
1r	.
=187	=187
4r	.
8r	.
16cLL	さ
16e-JJ	が
8.fL	し
[16gJk	に
8gL]	.
8cJ	い
=188	=188
8fL	く
16fL	ん
[16gJJ	だ
8gL]	.
[8fJ	せ
8fL]	.
8e-	つ
8f	な
8gJ	と
=189	=189
8fL	り
8e-J	い
8cL	ぷ
16cL	と
16dnJJ	べ
16fLL	な
16f	い
16c	わ
16dJJ	け
16fLL	な
16f	い
16c	ま
16dJJ	だ
=190	=190
8fL	な
8b-	い
8g	しょ
8e-J	の
4f	は
8fL	と
16fL	に
[16gJJ	だ
=191	=191
8gL]	.
16gL	い
16g'JJ	ぶ
8r	.
16cLL	わ
16e-JJ	き
8.fL	め
[16gJk	も
8gL]	.
8cJ	ふ
=192	=192
8.fL	ら
[16gJk	ず
8gL]	.
[8fJ	で
8fL]	.
8e-	た
8f	と
8gJ	こ
=193	=193
8fL	しょ
8e-J	お
8cL	ぶ
16cL	て
16dnJJ	い
16fLL	た
16f	い
16c	て
16dJJ	い
16fLL	た
16f	い
16c	て
16dJJ	え
=194	=194
8fL	た
8g	い
8b-	わ
8gJ	し
2f	な
=195	=195
2en	い
8.fL	い
[16gJk	き
8gL]	.
8cJ	い
=196	=196
8.fL	そ
[16gJk	げ
8gL]	.
[8fJ	ぜ
8fL]	.
8e-	ん
8f	か
8gJ	い
=197	=197
8fL	しょ
8e-J	お
8cL	じょ
16cL	ね
16dnJJ	て
8fL	も
16cL	さ
16dJJ	め
8fL	て
16cL	も
16dJJ	そ
=198	=198
8fL	の
8b-	せ
8g	つ
8e-J	な
8fL	か
8fJ	い
8fL	な
16fL	ら
[16gJJ	せ
=199	=199
4g]	.
8r	.
16cLL	そ
16e-JJ	ろ
8.fL	そ
[16gJk	ろ
8gL]	.
8cJ	ど
=200	=200
8.fL	お
[16gJk	も
8gL]	.
[8fJ	げ
8fL]	.
8e-	ん
8f	か
8gJ	い
=201	=201
8fL	しょ
8e-J	お
8cL	じょ
16cL	そ
16dnJJ	お
8fL	こ
16cL	せ
16dJJ	い
8fL	の
16cL	と
16dJJ	り
=202	=202
8fL	い
8g	ぷ
8b-	に
8gJ	む
2f	ちゅ
=203	=203
2.en	う
4r	.
=204	=204
1r	.
=205	=205
1r	.
=206	=206
1r	.
=207	=207
1r	.
=208	=208
1r	.
=209	=209
1r	.
=210	=210
1r	.
=211	=211
1r	.
=212	=212
1r	.
=213	=213
1r	.
=214	=214
1r	.
=215	=215
1r	.
=216	=216
1r	.
=217	=217
1r	.
=218	=218
1r	.
=219	=219
1r	.
=220	=220
1r	.
=221	=221
1r	.
=222	=222
1r	.
=223	=223
4r	.
8r	.
16cLL	い
16e-JJ	か
8.fL	ん
[16gJk	せ
16gLL]	.
16gJ	ん
8cJ	ふ
=224	=224
8.fL	か
[16gJk	ぜ
16gLL]	.
16gJ	ん
[8fJ	と
8fL]	.
8e-	り
8f	い
8gJ	ぷ
=225	=225
8fL	が
8e-J	あ
8cL	る
16cL	か
16dnJJ	わ
8fL	る
16cL	が
16dJJ	わ
8fL	る
16cL	が
16dJJ	な
=226	=226
8fL	り
8b-	た
8g	て
8e-J	る
8fL	り
8fJ	あ
8fL	る
16fL	を
[16gJJ	ば
=227	=227
8gL]	.
16gL	ん
16g'JJ	ぐ
8r	.
16cLL	あ
16e-JJ	ら
8.fL	が
[16gJk	え
8gL]	.
8cJ	き
=228	=228
8.fL	い
[16gJk	と
8gL]	.
[8fJ	と
8fL]	.
8e-	り
8f	い
8gJ	く
=229	=229
8fL	が
8e-J	あ
8cL	る
16cL	め
16dnJJ	い
8fL	ろ
16cL	ね
16dJJ	い
8fL	ろ
16cL	よ
16dJJ	い
=230	=230
8fL	ろ
8g	に
8b-	ま
8gJ	ぎ
2f	れ
=231	=231
2en	て
8.fL	う
[16gJk	ら
8gL]	.
8cJ	わ
=232	=232
8.fL	か
[16gJk	き
8gL]	.
[8fJ	あ
8fL]	.
8e-	す
8f	あ
8gJ	る
=233	=233
8fL	しょ
8e-J	お
8cL	じょ
16cL	ね
16dnJJ	た
16fLL	ふ
16f	り
16c	ふ
16dJJ	り
8fL	い
16cL	み
16dJJ	み
=234	=234
8fL	を
8b-	ふ
8g	さ
8e-J	ぐ
8fL	あ
8fJ	き
8fL	こ
16fL	え
[16gJJ	な
=235	=235
8.gL]	.
16gJk	い
8r	.
16cLL	か
16e-JJ	ん
8.fL	び
[16gJk	な
8gL]	.
16cL	ば
16cJJ	ん
=236	=236
8.fL	び
[16gJk	な
8gL]	.
[8fJ	ゆ
8fL]	.
8e-	め
8f	み
8gJ	る
=237	=237
8fL	しょ
8e-J	お
8cL	じょ
16cL	そ
16dnJJ	こ
8fL	に
16cL	え
16dJJ	い
16fLL	え
16f	ん
16c	が
16dJJ	あ
=238	=238
8fL	る
8g	と
8b-	し
8gJ	ん
2f	じ
=239	=239
2en	て
2r	.
=240	=240
1r	.
=241	=241
1r	.
=242	=242
1r	.
=243	=243
2r	.
8r	.
16gLL	よ
16gJJ	わ
8g'L	か
16gL	た
16g-XJJ	ら
=244	=244
16g-XKL	お
8gn	わ
16gJk	り
8b-L	だ
8gJ	て
8r	.
16gLL	さ
16gJJ	き
16gLL	な
16g	ん
16g	か
[16g-XJJ	し
=245	=245
16g-KL]	.
8g-X	れ
16gnJk	て
8b-L	る
8gJ	て
8r	.
16gLL	く
16gJJ	つ
16gLL	が
16g	え
16g	せ
[16g-XJJ	や
=246	=246
16g-KL]	.
8g-X	し
16gnJk	な
8b-L	い
8gJ	て
2r	.
=247	=247
1r	.
=248	=248
1r	.
=249	=249
1r	.
=250	=250
1r	.
=251	=251
1r	.
=252	=252
1r	.
=253	=253
1r	.
=254	=254
1r	.
=255	=255
1r	.
=256	=256
1r	.
=257	=257
1r	.
=258	=258
1r	.
=259	=259
1r	.
=260	=260
1r	.
=261	=261
1r	.
=262	=262
1r	.
=263	=263
2r	.
8.fL	め
[16gJk	を
8gL]	.
8cJ	さ
=264	=264
8.fL	ま
[16gJk	せ
8gL]	.
[8fJ	せ
8fL]	.
8e-	つ
8f	な
8gJ	と
=265	=265
8fL	り
8e-J	い
8cL	ぷ
16cL	と
16dnJJ	べ
16fLL	な
16f	い
16c	わ
16dJJ	け
16fLL	な
16f	い
16c	い
16dJJ	ま
=266	=266
8fL	ま
8b-	ぶ
8g	し
8e-J	い
8fL	り
8fJ	あ
8fL	る
16fL	に
[16gJJ	だ
=267	=267
8gL]	.
16gL	い
16g'JJ	ぶ
8r	.
16cLL	わ
16e-JJ	き
8.fL	め
[16gJk	も
8gL]	.
8cJ	ふ
=268	=268
8.fL	ら
[16gJk	ず
8gL]	.
[8fJ	に
8fL]	.
8e-	げ
8f	ず
8gJ	に
=269	=269
8fL	しょ
8e-J	お
8cL	ぶ
16cL	ぜ
16dnJJ	え
16fLL	た
16f	い
16c	め
16dJJ	い
16fLL	だ
16f	い
16c	て
16dJJ	え
=270	=270
8fL	た
8g	い
8b-	わ
8gJ	し
2f	な
=271	=271
4.g	い
16cLL	か
16dnJJ	く
8fL	ご
16cL	き
16dJJ	め
8fL	て
16cL	ま
16dJJ	け
=272	=272
8fL	ず
8f	い
8b-	き
8ccJ	る
2ddn	か
=273	=273
2cc	ら
2r	.
==	==
*-	*-
